X:383
T:The bucks of Westmeath
C:anon.
O:Ireland
R:Single jig
B:O'Neills's 1001
Z:Transcribed by Frank Nordberg http://www.musicaviva.com
M:6/8
L:1/8
K:G
e|d3 BdB|G2A B2c|d3 BdB|cAB c2e|d3 BdB|G2A B2d|gfe dcB|A2B c2:|
|:d|gfg dcB|ege dcB|A2B c2f|gfg abc'|bag gfe|gfe dcB|A2B c2:|
|:e|dBG G2e|dBG G2e|dBG G2B|A2B c2e|dBG G2e|dBG G2d|gfe dcB|A2B c2:|


